.github/zadark-from-quaric.svg

<svg width="258" height="36" viewBox="0 0 258 36" fill="none" xmlns="http://www.w3.org/2000/svg">
<path d="M2 18C2 9.16347 9.18232 2 18.0421 2H239.958C248.818 2 256 9.16347 256 18C256 26.8365 248.818 34 239.958 34H18.0421C9.18232 34 2 26.8365 2 18Z" fill="black"/>
<path fill-rule="evenodd" clip-rule="evenodd" d="M239.958 2.44444H18.0421C9.42839 2.44444 2.44561 9.40889 2.44561 18C2.44561 26.5911 9.42839 33.5556 18.0421 33.5556H239.958C248.572 33.5556 255.554 26.5911 255.554 18C255.554 9.40889 248.572 2.44444 239.958 2.44444ZM18.0421 2C9.18227 2 2 9.16347 2 18C2 26.8366 9.18232 34 18.0421 34H239.958C248.818 34 256 26.8366 256 18C256 9.16347 248.818 2 239.958 2H18.0421Z" fill="#404040"/>
<path d="M20.464 13.9874C20.464 13.4051 20.2088 13.2205 19.6417 13.2205H13.6447C13.432 13.2205 13.4037 13.2915 13.4037 13.5045V14.442C13.4037 14.6266 13.432 14.7118 13.6447 14.7118H18.4508L18.465 14.7686L13.0776 21.2311C12.8082 21.5294 12.6948 21.7709 12.6948 22.1828V22.4526C12.6948 22.9639 12.9784 23.177 13.4888 23.177H20.3222C20.5349 23.177 20.5633 23.1201 20.5633 22.9071V21.9697C20.5633 21.7566 20.5349 21.6856 20.3222 21.6856H14.8639L14.8356 21.6004L20.0387 15.3509C20.2797 15.0527 20.464 14.7544 20.464 14.3567V13.9874Z" fill="#A3A3A3"/>
<path d="M28.0641 18.1064C28.0641 16.4446 27.185 15.5498 25.2144 15.5498C24.3779 15.5498 23.3713 15.6634 22.5774 15.9617C22.4498 16.0043 22.4073 16.1038 22.4498 16.26L22.6483 17.0696C22.6908 17.24 22.7617 17.2684 22.9744 17.2116C23.4422 17.0554 24.307 16.9275 24.945 16.9275C26.1501 16.9275 26.4053 17.453 26.4053 18.1774V18.4189H24.8175C22.5491 18.4189 21.7268 19.6404 21.7268 20.9613C21.7268 22.2538 22.3931 23.3332 24.9025 23.3332C25.8099 23.3332 26.9582 23.2196 27.7947 22.8361C27.979 22.7509 28.0641 22.5946 28.0641 22.3674V18.1064ZM26.3911 21.7709C25.8949 21.9697 25.1861 21.9981 24.9167 21.9981C24.0093 21.9981 23.4139 21.7141 23.4139 20.9045C23.4139 19.7682 24.4063 19.683 25.0301 19.683H26.3911V21.7709Z" fill="#A3A3A3"/>
<path d="M33.6022 23.177C36.7212 23.177 37.9546 20.9755 37.9546 18.1348C37.9546 15.2658 36.5369 13.2063 33.4604 13.2063L30.8376 13.2205C30.228 13.2205 30.0437 13.4762 30.0437 14.0301V22.3674C30.0437 22.9355 30.228 23.177 30.8376 23.177H33.6022ZM36.1683 18.1632C36.1683 20.1517 35.5445 21.6288 33.3612 21.6288H31.7875V14.7544H33.3187C35.5303 14.7544 36.1683 16.2458 36.1683 18.1632Z" fill="#A3A3A3"/>
<path d="M45.7164 18.1064C45.7164 16.4446 44.8374 15.5498 42.8667 15.5498C42.0303 15.5498 41.0237 15.6634 40.2298 15.9617C40.1022 16.0043 40.0596 16.1038 40.1022 16.26L40.3007 17.0696C40.3432 17.24 40.4141 17.2684 40.6267 17.2116C41.0946 17.0554 41.9594 16.9275 42.5974 16.9275C43.8025 16.9275 44.0577 17.453 44.0577 18.1774V18.4189H42.4698C40.2014 18.4189 39.3792 19.6404 39.3792 20.9613C39.3792 22.2538 40.0455 23.3332 42.5549 23.3332C43.4622 23.3332 44.6106 23.2196 45.447 22.8361C45.6313 22.7509 45.7164 22.5946 45.7164 22.3674V18.1064ZM44.0435 21.7709C43.5473 21.9697 42.8384 21.9981 42.569 21.9981C41.6617 21.9981 41.0662 21.7141 41.0662 20.9045C41.0662 19.7682 42.0587 19.683 42.6825 19.683H44.0435V21.7709Z" fill="#A3A3A3"/>
<path d="M49.3264 17.0982C49.539 17.0555 49.7658 17.0414 49.9926 17.0414C50.7444 17.0414 51.3682 17.3112 51.9208 17.7799C52.0487 17.8794 52.1338 17.9219 52.2327 17.7657L52.8851 16.8283C52.9417 16.7289 52.9702 16.6579 52.8423 16.5584C51.9778 15.8341 50.8718 15.5642 49.7235 15.5642C49.3692 15.5642 49.0145 15.5926 48.6745 15.6352C47.8662 15.7489 47.6821 16.0897 47.6821 16.8425V22.9357C47.6821 23.1488 47.7668 23.1772 47.9513 23.1772H49.043C49.2556 23.1772 49.3264 23.1488 49.3264 22.9357V17.0982Z" fill="#A3A3A3"/>
<path d="M59.7815 15.9476C59.8804 15.8482 59.8524 15.7203 59.6821 15.7203H58.2504C58.0374 15.7203 58.0093 15.7629 57.9099 15.8623L55.4858 18.7456L55.4287 18.7172V13.0359C55.4287 12.8228 55.3721 12.7944 55.1596 12.7944H54.0536C53.8695 12.7944 53.7844 12.8228 53.7844 13.0359V22.9356C53.7844 23.1487 53.8695 23.1771 54.0536 23.1771H55.1596C55.3721 23.1771 55.4287 23.1487 55.4287 22.9356V21.0181L56.7473 19.5126L58.2927 22.9782C58.3355 23.106 58.4629 23.1771 58.647 23.1771H59.9232C60.0934 23.1771 60.1215 23.0776 60.0792 22.964L57.8957 18.2059L59.7815 15.9476Z" fill="#A3A3A3"/>
<path d="M69.588 13.1497C69.6308 13.0218 69.6308 12.9366 69.4606 12.8798C68.8367 12.6951 68.1139 12.6667 67.8301 12.6667C66.2847 12.6667 65.6327 13.5189 65.6327 14.8256V15.7204L64.6261 15.9477C64.4135 15.9903 64.385 16.0613 64.385 16.2318V16.7715C64.385 16.8993 64.3993 16.9987 64.6118 16.9987H65.6327V22.9357C65.6327 23.1488 65.7178 23.1772 65.9019 23.1772H67.0079C67.2205 23.1772 67.2775 23.1488 67.2775 22.9357V16.9987H68.9927C69.2052 16.9987 69.2195 16.9277 69.2195 16.7715V15.9477C69.2195 15.7773 69.2052 15.7204 68.9927 15.7204H67.2775V14.8825C67.2775 14.4422 67.4758 14.1013 68.1705 14.1013C68.4116 14.1013 68.7658 14.1297 69.1486 14.2007C69.2903 14.2291 69.3754 14.1865 69.404 14.0587L69.588 13.1497Z" fill="#A3A3A3"/>
<path d="M72.1709 17.0982C72.3834 17.0555 72.6103 17.0414 72.8371 17.0414C73.5888 17.0414 74.2122 17.3112 74.7652 17.7799C74.8931 17.8794 74.9778 17.9219 75.0772 17.7657L75.7296 16.8283C75.7861 16.7289 75.8147 16.6579 75.6868 16.5584C74.8218 15.8341 73.7163 15.5642 72.5679 15.5642C72.2132 15.5642 71.859 15.5926 71.5189 15.6352C70.7106 15.7489 70.5261 16.0897 70.5261 16.8425V22.9357C70.5261 23.1488 70.6112 23.1772 70.7957 23.1772H71.8875C72.1 23.1772 72.1709 23.1488 72.1709 22.9357V17.0982Z" fill="#A3A3A3"/>
<path d="M82.9583 19.4131C82.9583 17.0128 81.7819 15.5498 79.5276 15.5498C77.5 15.5498 76.0825 16.9702 76.0825 19.4557C76.0825 21.9981 77.2023 23.3332 79.4848 23.3332C81.7957 23.3332 82.9583 21.9271 82.9583 19.4131ZM81.2712 19.4557C81.2712 20.7624 80.8176 21.9413 79.499 21.9413C78.1947 21.9413 77.7554 20.9897 77.7554 19.4131C77.7554 18.007 78.3364 16.9418 79.5561 16.9418C80.917 16.9418 81.2712 18.0922 81.2712 19.4557Z" fill="#A3A3A3"/>
<path d="M86.1653 17.0554C86.4344 17.0128 87.0159 16.9702 87.2428 16.9702C88.8305 16.9702 89.1567 17.8366 89.1567 19.1433V22.9355C89.1567 23.1486 89.2418 23.177 89.4258 23.177H90.5318C90.7444 23.177 90.8152 23.1486 90.8152 22.9355V19.1717C90.8152 18.4473 90.7587 17.8507 90.5318 17.3252C90.9146 17.1122 91.5951 16.9843 92.091 16.9843C93.4524 16.9843 93.9341 17.7087 93.9341 19.2427V22.9355C93.9341 23.1486 94.0192 23.177 94.2037 23.177H95.2955C95.508 23.177 95.5789 23.1486 95.5789 22.9355V19.0296C95.5789 16.9702 94.6431 15.5498 92.304 15.5498C91.2831 15.5498 90.3616 15.8197 89.6954 16.26C89.0716 15.7629 88.2917 15.5498 87.1434 15.5498C86.6898 15.5498 85.7397 15.635 85.4706 15.6777C84.6622 15.8765 84.5205 16.2032 84.5205 16.8991V22.9355C84.5205 23.1486 84.6056 23.177 84.7901 23.177H85.8957C86.1082 23.177 86.1653 23.1486 86.1653 22.9355V17.0554Z" fill="#A3A3A3"/>
<path fill-rule="evenodd" clip-rule="evenodd" d="M161.53 25.1111V22.8889H158.634C159.333 21.9604 159.747 20.8062 159.747 19.5556V16.4445C159.747 13.3762 157.254 10.8889 154.177 10.8889H143.928C140.852 10.8889 138.358 13.3762 138.358 16.4445V19.5556C138.358 22.6238 140.852 25.1111 143.928 25.1111H161.53ZM143.928 13.1111C142.082 13.1111 140.586 14.6035 140.586 16.4445V19.5556C140.586 21.3965 142.082 22.8889 143.928 22.8889H154.181C156.025 22.8866 157.519 21.3951 157.519 19.5556V16.4445C157.519 14.6035 156.023 13.1111 154.177 13.1111H143.928Z" fill="white"/>
<path d="M165.54 10.8889V19.5556C165.54 21.3965 167.037 22.8889 168.882 22.8889H177.126V10.8889H179.354V25.1111H168.882C165.806 25.1111 163.312 22.6238 163.312 19.5556V10.8889H165.54Z" fill="white"/>
<path fill-rule="evenodd" clip-rule="evenodd" d="M195.174 10.8889H186.484V13.1111H195.174C196.944 13.1111 198.394 14.4849 198.509 16.2222H187.375C184.914 16.2222 182.919 18.2121 182.919 20.6667C182.919 23.1213 184.914 25.1111 187.375 25.1111H200.744V16.4445C200.744 13.3762 198.25 10.8889 195.174 10.8889ZM187.375 18.4445H198.516V22.8889H187.375C186.145 22.8889 185.147 21.894 185.147 20.6667C185.147 19.4394 186.145 18.4445 187.375 18.4445Z" fill="white"/>
<path d="M204.309 16.4445C204.309 13.3762 206.802 10.8889 209.879 10.8889H219.905V13.1111H209.879C208.033 13.1111 206.537 14.6035 206.537 16.4445V25.1111H204.309V16.4445Z" fill="white"/>
<path d="M223.916 25.1111V10.8889H221.688V25.1111H223.916Z" fill="white"/>
<path d="M229.709 16.4445C229.709 14.6035 231.205 13.1111 233.051 13.1111H245.305V10.8889H233.051C229.974 10.8889 227.481 13.3762 227.481 16.4445V19.5556C227.481 22.6238 229.974 25.1111 233.051 25.1111H245.305V22.8889H233.051C231.205 22.8889 229.709 21.3965 229.709 19.5556V16.4445Z" fill="white"/>
<path d="M118.751 10.8889L128.624 14.3962C132.096 15.5455 132.096 20.4546 128.624 21.6039L118.751 25.1111V22.7417L127.922 19.484C129.352 19.0107 129.352 16.9894 127.922 16.5161L120.203 13.7221L115.186 25.1111L105.313 21.6039C101.841 20.4546 101.841 15.5455 105.313 14.3962L115.186 10.8889V13.2583L106.015 16.5161C104.585 16.9894 104.585 19.0107 106.015 19.484L113.734 22.278L118.751 10.8889Z" fill="#8394A3"/>
</svg>

<svg xmlns="http://www.w3.org/2000/svg" width="258" height="36" fill="none"><path fill="#040D17" d="M2 18C2 9.163 9.182 2 18.042 2h221.916C248.818 2 256 9.163 256 18s-7.182 16-16.042 16H18.042C9.182 34 2 26.837 2 18Z"/><path fill="#323E4D" fill-rule="evenodd" d="M239.958 2.444H18.042C9.428 2.444 2.446 9.41 2.446 18s6.982 15.556 15.596 15.556h221.916c8.614 0 15.596-6.965 15.596-15.556s-6.982-15.556-15.596-15.556ZM18.042 2C9.182 2 2 9.163 2 18s7.182 16 16.042 16h221.916C248.818 34 256 26.837 256 18s-7.182-16-16.042-16H18.042Z" clip-rule="evenodd"/><path fill="#7789A2" d="M20.464 13.987c0-.582-.255-.767-.822-.767h-5.997c-.213 0-.241.071-.241.284v.938c0 .185.028.27.24.27h4.807l.014.057-5.387 6.462c-.27.298-.383.54-.383.952v.27c0 .51.283.724.794.724h6.833c.213 0 .24-.057.24-.27v-.937c0-.213-.027-.284-.24-.284h-5.46l-.026-.086 5.203-6.25c.24-.297.425-.596.425-.993v-.37Zm7.6 4.119c0-1.661-.88-2.556-2.85-2.556-.836 0-1.843.113-2.637.412-.127.042-.17.142-.127.298l.198.81c.043.17.114.198.326.142.468-.157 1.333-.285 1.97-.285 1.206 0 1.46.526 1.46 1.25v.242h-1.587c-2.268 0-3.09 1.221-3.09 2.542 0 1.293.666 2.372 3.175 2.372.908 0 2.056-.113 2.893-.497.184-.085.27-.241.27-.469v-4.26l-.001-.001Zm-1.673 3.665c-.496.199-1.205.227-1.474.227-.908 0-1.503-.284-1.503-1.094 0-1.136.992-1.221 1.616-1.221h1.36v2.088Zm7.21 1.406c3.12 0 4.354-2.201 4.354-5.042 0-2.87-1.418-4.929-4.495-4.929l-2.622.014c-.61 0-.794.256-.794.81v8.337c0 .569.184.81.794.81h2.764Zm2.567-5.014c0 1.989-.623 3.466-2.807 3.466h-1.573v-6.875h1.53c2.212 0 2.85 1.491 2.85 3.409Zm9.548-.057c0-1.661-.88-2.556-2.85-2.556-.836 0-1.842.113-2.636.412-.128.042-.17.142-.128.298l.199.81c.042.17.113.198.326.142.468-.157 1.332-.285 1.97-.285 1.206 0 1.46.526 1.46 1.25v.242H42.47c-2.27 0-3.09 1.221-3.09 2.542 0 1.293.665 2.372 3.175 2.372.907 0 2.056-.113 2.892-.497.184-.085.27-.241.27-.469v-4.26l-.001-.001Zm-1.672 3.665c-.497.199-1.206.227-1.475.227-.907 0-1.503-.284-1.503-1.094 0-1.136.993-1.221 1.616-1.221h1.36l.002 2.088Zm5.282-4.673a3.4 3.4 0 0 1 .667-.057c.75 0 1.375.27 1.928.739.128.1.213.142.312-.014l.652-.938c.057-.1.085-.17-.043-.27-.864-.724-1.97-.994-3.118-.994-.355 0-.71.029-1.05.071-.808.114-.992.455-.992 1.208v6.093c0 .213.085.241.27.241h1.09c.214 0 .284-.028.284-.241v-5.838Zm10.456-1.15c.098-.1.07-.228-.1-.228H58.25c-.213 0-.24.043-.34.142l-2.424 2.884-.057-.029v-5.681c0-.213-.057-.242-.27-.242h-1.105c-.184 0-.27.029-.27.242v9.9c0 .213.086.241.27.241h1.106c.212 0 .269-.028.269-.241v-1.918l1.318-1.505 1.546 3.465c.043.128.17.2.354.2h1.276c.17 0 .198-.1.156-.214l-2.183-4.758 1.886-2.258Zm9.806-2.798c.043-.128.043-.213-.127-.27-.624-.185-1.347-.213-1.63-.213-1.546 0-2.198.852-2.198 2.159v.894l-1.007.228c-.213.042-.241.113-.241.284v.54c0 .127.014.227.227.227h1.02v5.937c0 .213.086.241.27.241h1.106c.213 0 .27-.028.27-.241v-5.937h1.715c.212 0 .227-.071.227-.227v-.824c0-.17-.015-.228-.227-.228h-1.715v-.838c0-.44.198-.78.892-.78.242 0 .596.028.979.099.14.028.226-.014.255-.142l.184-.909Zm2.582 3.948a3.4 3.4 0 0 1 .667-.057c.752 0 1.375.27 1.928.739.128.1.213.142.312-.014l.653-.938c.056-.1.085-.17-.043-.27-.865-.724-1.97-.994-3.12-.994-.35.002-.7.026-1.048.071-.808.114-.993.455-.993 1.208v6.093c0 .213.085.241.27.241h1.09c.214 0 .285-.028.285-.241l-.001-5.838Zm10.788 2.315c0-2.4-1.176-3.863-3.43-3.863-2.028 0-3.446 1.42-3.446 3.906 0 2.542 1.12 3.877 3.403 3.877 2.31 0 3.473-1.406 3.473-3.92Zm-1.687.043c0 1.306-.453 2.485-1.772 2.485-1.304 0-1.744-.951-1.744-2.528 0-1.406.58-2.471 1.8-2.471 1.362 0 1.716 1.15 1.716 2.514Zm4.894-2.401c.27-.042.85-.085 1.078-.085 1.588 0 1.914.867 1.914 2.173v3.793c0 .213.085.241.269.241h1.106c.212 0 .283-.028.283-.241v-3.764c0-.725-.056-1.321-.283-1.847.383-.213 1.063-.34 1.559-.34 1.36 0 1.843.724 1.843 2.258v3.693c0 .213.085.241.27.241h1.092c.212 0 .283-.028.283-.241V19.03c0-2.06-.936-3.48-3.275-3.48-1.02 0-1.942.27-2.61.71-.622-.497-1.402-.71-2.551-.71-.453 0-1.403.085-1.672.128-.81.198-.95.525-.95 1.221v6.037c0 .213.085.241.27.241h1.105c.212 0 .27-.028.27-.241v-5.88l-.001-.001Z"/><path fill="#fff" fill-rule="evenodd" d="M161.53 25.11v-2.22h-2.896a5.521 5.521 0 0 0 1.113-3.333v-3.111c0-3.07-2.493-5.556-5.57-5.556h-10.249c-3.076 0-5.57 2.487-5.57 5.556v3.11c0 3.069 2.494 5.556 5.57 5.556l17.602-.001Zm-17.602-12a3.344 3.344 0 0 0-2.361.976 3.324 3.324 0 0 0-.981 2.359v3.11a3.333 3.333 0 0 0 .981 2.359 3.332 3.332 0 0 0 2.361.975h10.253a3.34 3.34 0 0 0 3.338-3.333v-3.111a3.337 3.337 0 0 0-3.342-3.334h-10.249Z" clip-rule="evenodd"/><path fill="#fff" d="M165.54 10.889v8.667a3.335 3.335 0 0 0 3.342 3.333h8.244v-12h2.228v14.22h-10.472c-3.076 0-5.57-2.486-5.57-5.554v-8.667h2.228Z"/><path fill="#fff" fill-rule="evenodd" d="M195.174 10.889h-8.69v2.222h8.69a3.339 3.339 0 0 1 3.335 3.11h-11.134a4.452 4.452 0 0 0-4.456 4.446 4.46 4.46 0 0 0 1.308 3.145 4.434 4.434 0 0 0 3.148 1.299h13.369v-8.666c0-3.07-2.494-5.556-5.57-5.556Zm-7.799 7.556h11.141v4.444h-11.141a2.226 2.226 0 0 1-2.228-2.222c0-1.228.998-2.222 2.228-2.222Z" clip-rule="evenodd"/><path fill="#fff" d="M204.309 16.445c0-3.07 2.493-5.556 5.57-5.556h10.026v2.222h-10.026a3.34 3.34 0 0 0-3.342 3.334v8.666h-2.228v-8.666Zm19.607 8.666V10.89h-2.228v14.22h2.228Zm5.793-8.666a3.333 3.333 0 0 1 .98-2.36 3.348 3.348 0 0 1 2.362-.974h12.254V10.89h-12.254c-3.077 0-5.57 2.487-5.57 5.556v3.11c0 3.069 2.493 5.556 5.57 5.556h12.254V22.89h-12.254a3.338 3.338 0 0 1-3.342-3.333v-3.112Zm-110.958-5.556 9.873 3.507c3.472 1.15 3.472 6.059 0 7.208l-9.873 3.507v-2.37l9.171-3.257c1.43-.473 1.43-2.495 0-2.968l-7.719-2.794-5.017 11.39-9.873-3.508c-3.472-1.15-3.472-6.058 0-7.208l9.873-3.507v2.37l-9.171 3.257c-1.43.473-1.43 2.495 0 2.968l7.719 2.794 5.017-11.39Z"/></svg>
